theory/color/perception/images/Cone-fundamentals-with-srgb-spectrum.svg

<?xml version="1.0" encoding="UTF-8" standalone="no"?>
<!DOCTYPE svg PUBLIC "-//W3C//DTD SVG 1.1//EN" "http://www.w3.org/Graphics/SVG/1.1/DTD/svg11.dtd">
<svg version="1.1" xmlns="http://www.w3.org/2000/svg" xmlns:xlink="http://www.w3.org/1999/xlink" width="540" height="380" fill="none"><defs><linearGradient id="spectrum"><stop offset="0%" stop-color="#000001"/><stop offset="3%" stop-color="#010002"/><stop offset="6%" stop-color="#020007"/><stop offset="9%" stop-color="#060013"/><stop offset="16%" stop-color="#170039"/><stop offset="19%" stop-color="#1D004E"/><stop offset="20%" stop-color="#1D005B"/><stop offset="22%" stop-color="#18006B"/><stop offset="23%" stop-color="#000879"/><stop offset="25%" stop-color="#002061"/><stop offset="28%" stop-color="#00334D"/><stop offset="31%" stop-color="#004245"/><stop offset="34%" stop-color="#005446"/><stop offset="41%" stop-color="#007C4F"/><stop offset="44%" stop-color="#00884D"/><stop offset="45%" stop-color="#008C48"/><stop offset="48%" stop-color="#00912F"/><stop offset="50%" stop-color="#159300"/><stop offset="52%" stop-color="#409000"/><stop offset="56%" stop-color="#7E8000"/><stop offset="61%" stop-color="#A56400"/><stop offset="64%" stop-color="#B44A00"/><stop offset="67%" stop-color="#BA2700"/><stop offset="69%" stop-color="#B90C00"/><stop offset="70%" stop-color="#B00016"/><stop offset="72%" stop-color="#A4001F"/><stop offset="75%" stop-color="#8B0021"/><stop offset="78%" stop-color="#72001D"/><stop offset="88%" stop-color="#310009"/><stop offset="91%" stop-color="#220005"/><stop offset="97%" stop-color="#0D0001"/><stop offset="100%" stop-color="#070001"/></linearGradient></defs><rect width="540" height="380" fill="white"/><g stroke="white" stroke-width="3" stroke-linecap="square" transform="translate(40,20)"><rect x="0" y="0" width="480" height="300" stroke="none" fill="url(#spectrum)"/><path d="M0,300C24,299 46,295 69,290C80,287 91,287 101,283C109,280 117,274 124,268C134,261 145,252 152,242C166,221 173,195 180,171C183,160 186,149 189,138C196,113 204,88 216,64C221,54 225,42 233,33C235,31 238,30 240,27C243,25 245,22 248,20C250,18 252,17 255,16C260,13 265,10 270,10C277,10 280,15 285,19C288,21 292,22 294,24C302,31 307,41 311,50C320,68 327,87 334,106C341,126 348,146 354,166C362,190 370,213 381,235C391,254 402,275 422,287C440,297 460,298 480,299"/><path d="M0,300C20,299 39,296 58,289C65,287 71,283 77,280C86,277 96,274 103,268C110,262 116,254 122,247C132,236 143,225 150,212C162,191 168,166 174,143C179,126 183,109 188,91C192,74 196,56 204,39C208,31 213,24 219,17C222,14 225,11 229,10C234,10 237,14 240,17C243,19 245,20 248,22C251,27 254,32 257,37C270,58 276,81 283,104C288,120 293,136 298,151C305,172 311,193 319,213C324,229 331,244 339,258C347,270 357,281 369,288C382,295 398,297 413,299C435,300 458,300 480,300"/><path d="M0,297C3,296 5,295 8,293C14,287 18,279 21,270C25,258 27,245 30,232C36,203 40,172 45,142C49,120 54,98 58,76C61,61 65,46 69,31C70,27 72,21 73,17C74,15 75,12 77,11C79,9 81,11 83,12C86,15 88,19 90,23C93,30 94,37 96,44C98,53 101,63 105,72C107,77 111,81 113,86C119,103 122,122 126,141C130,164 134,187 141,209C144,221 147,232 152,243C156,252 162,261 169,269C173,275 177,280 182,284C204,301 232,299 259,300C284,301 309,300 334,300C383,300 431,300 480,300"/><line x1="0" y1="300" x2="480" y2="300" stroke="white"/></g><g font-family="Nimbus Roman No9 L, Times, serif" font-size="20" text-anchor="middle" stroke="none" fill="black"><text x="55.5" y="350">400</text><text x="130.5" y="350">450</text><text x="205.5" y="350">500</text><text x="280.5" y="350">550</text><text x="355.5" y="350">600</text><text x="430.5" y="350">650</text><text x="505.5" y="350">700</text><text x="280" y="370">Wavelength (nm)</text><text transform="translate(20,170) rotate(-90)">Normalized cone response (linear energy)</text><g fill="white"><text x="145" y="50">S</text><text x="230" y="50">M</text><text x="355" y="50">L</text></g></g><path stroke="black" stroke-width="1" d="M30.5,10.5l499,0l0,319l-499,0l0,-319M40.5,10.5l0,3M40.5,326.5l0,3M55.5,10.5l0,6M55.5,323.5l0,6M70.5,10.5l0,3M70.5,326.5l0,3M85.5,10.5l0,3M85.5,326.5l0,3M100.5,10.5l0,3M100.5,326.5l0,3M115.5,10.5l0,3M115.5,326.5l0,3M130.5,10.5l0,6M130.5,323.5l0,6M145.5,10.5l0,3M145.5,326.5l0,3M160.5,10.5l0,3M160.5,326.5l0,3M175.5,10.5l0,3M175.5,326.5l0,3M190.5,10.5l0,3M190.5,326.5l0,3M205.5,10.5l0,6M205.5,323.5l0,6M220.5,10.5l0,3M220.5,326.5l0,3M235.5,10.5l0,3M235.5,326.5l0,3M250.5,10.5l0,3M250.5,326.5l0,3M265.5,10.5l0,3M265.5,326.5l0,3M280.5,10.5l0,6M280.5,323.5l0,6M295.5,10.5l0,3M295.5,326.5l0,3M310.5,10.5l0,3M310.5,326.5l0,3M325.5,10.5l0,3M325.5,326.5l0,3M340.5,10.5l0,3M340.5,326.5l0,3M355.5,10.5l0,6M355.5,323.5l0,6M370.5,10.5l0,3M370.5,326.5l0,3M385.5,10.5l0,3M385.5,326.5l0,3M400.5,10.5l0,3M400.5,326.5l0,3M415.5,10.5l0,3M415.5,326.5l0,3M430.5,10.5l0,6M430.5,323.5l0,6M445.5,10.5l0,3M445.5,326.5l0,3M460.5,10.5l0,3M460.5,326.5l0,3M475.5,10.5l0,3M475.5,326.5l0,3M490.5,10.5l0,3M490.5,326.5l0,3M505.5,10.5l0,6M505.5,323.5l0,6M520.5,10.5l0,3M520.5,326.5l0,3"/></svg>

<svg fill="none" height="380" width="540" xmlns="http://www.w3.org/2000/svg" xmlns:xlink="http://www.w3.org/1999/xlink"><linearGradient id="a"><stop offset="0" stop-color="#000001"/><stop offset=".03" stop-color="#010002"/><stop offset=".06" stop-color="#020007"/><stop offset=".09" stop-color="#060013"/><stop offset=".16" stop-color="#170039"/><stop offset=".19" stop-color="#1d004e"/><stop offset=".2" stop-color="#1d005b"/><stop offset=".22" stop-color="#18006b"/><stop offset=".23" stop-color="#000879"/><stop offset=".25" stop-color="#002061"/><stop offset=".28" stop-color="#00334d"/><stop offset=".31" stop-color="#004245"/><stop offset=".34" stop-color="#005446"/><stop offset=".41" stop-color="#007c4f"/><stop offset=".44" stop-color="#00884d"/><stop offset=".45" stop-color="#008c48"/><stop offset=".48" stop-color="#00912f"/><stop offset=".5" stop-color="#159300"/><stop offset=".52" stop-color="#409000"/><stop offset=".56" stop-color="#7e8000"/><stop offset=".61" stop-color="#a56400"/><stop offset=".64" stop-color="#b44a00"/><stop offset=".67" stop-color="#ba2700"/><stop offset=".69" stop-color="#b90c00"/><stop offset=".7" stop-color="#b00016"/><stop offset=".72" stop-color="#a4001f"/><stop offset=".75" stop-color="#8b0021"/><stop offset=".78" stop-color="#72001d"/><stop offset=".88" stop-color="#310009"/><stop offset=".91" stop-color="#220005"/><stop offset=".97" stop-color="#0d0001"/><stop offset="1" stop-color="#070001"/></linearGradient><path d="m0 0h540v380h-540z" fill="#fff"/><g stroke="#fff" stroke-linecap="square" stroke-width="3" transform="translate(40 20)"><path d="m0 0h480v300h-480z" fill="url(#a)" stroke="none"/><path d="m0 300c24-1 46-5 69-10 11-3 22-3 32-7 8-3 16-9 23-15 10-7 21-16 28-26 14-21 21-47 28-71l9-33c7-25 15-50 27-74 5-10 9-22 17-31 2-2 5-3 7-6 3-2 5-5 8-7 2-2 4-3 7-4 5-3 10-6 15-6 7 0 10 5 15 9 3 2 7 3 9 5 8 7 13 17 17 26 9 18 16 37 23 56 7 20 14 40 20 60 8 24 16 47 27 69 10 19 21 40 41 52 18 10 38 11 58 12"/><path d="m0 300c20-1 39-4 58-11 7-2 13-6 19-9 9-3 19-6 26-12s13-14 19-21c10-11 21-22 28-35 12-21 18-46 24-69 5-17 9-34 14-52 4-17 8-35 16-52 4-8 9-15 15-22 3-3 6-6 10-7 5 0 8 4 11 7 3 2 5 3 8 5l9 15c13 21 19 44 26 67 5 16 10 32 15 47 7 21 13 42 21 62 5 16 12 31 20 45 8 12 18 23 30 30 13 7 29 9 44 11 22 1 45 1 67 1"/><path d="m0 297c3-1 5-2 8-4 6-6 10-14 13-23 4-12 6-25 9-38 6-29 10-60 15-90 4-22 9-44 13-66 3-15 7-30 11-45 1-4 3-10 4-14 1-2 2-5 4-6 2-2 4 0 6 1 3 3 5 7 7 11 3 7 4 14 6 21 2 9 5 19 9 28 2 5 6 9 8 14 6 17 9 36 13 55 4 23 8 46 15 68 3 12 6 23 11 34 4 9 10 18 17 26 4 6 8 11 13 15 22 17 50 15 77 16 25 1 50 0 75 0h146"/><path d="m0 300h480" stroke="#fff"/></g><g fill="#000" font-family="Nimbus Roman No9 L, Times, serif" font-size="20" text-anchor="middle"><text x="55.5" y="350">400</text><text x="130.5" y="350">450</text><text x="205.5" y="350">500</text><text x="280.5" y="350">550</text><text x="355.5" y="350">600</text><text x="430.5" y="350">650</text><text x="505.5" y="350">700</text><text x="280" y="370">Wavelength (nm)</text><text transform="matrix(0 -1 1 0 20 170)">Normalized cone response (linear energy)</text><g fill="#fff"><text x="145" y="50">S</text><text x="230" y="50">M</text><text x="355" y="50">L</text></g></g><path d="m30.5 10.5h499v319h-499zm10 0v3m0 313v3m15-319v6m0 307v6m15-319v3m0 313v3m15-319v3m0 313v3m15-319v3m0 313v3m15-319v3m0 313v3m15-319v6m0 307v6m15-319v3m0 313v3m15-319v3m0 313v3m15-319v3m0 313v3m15-319v3m0 313v3m15-319v6m0 307v6m15-319v3m0 313v3m15-319v3m0 313v3m15-319v3m0 313v3m15-319v3m0 313v3m15-319v6m0 307v6m15-319v3m0 313v3m15-319v3m0 313v3m15-319v3m0 313v3m15-319v3m0 313v3m15-319v6m0 307v6m15-319v3m0 313v3m15-319v3m0 313v3m15-319v3m0 313v3m15-319v3m0 313v3m15-319v6m0 307v6m15-319v3m0 313v3m15-319v3m0 313v3m15-319v3m0 313v3m15-319v3m0 313v3m15-319v6m0 307v6m15-319v3m0 313v3" stroke="#000"/></svg>
